X:1
T:Jinny Turnip
C:Charlie Montgomery
O:New Zealand
M:6/8
L:1/8
K:G
Bc |: dBG AGE | DB,G, B,DG | cBc AFA | DGA cBA | GBd gdB | cag fed | dfe dAF | AGF GBc :|
d2g gfg | Bcd bag | d^cd g2g | agf agf | def g2a | bag bag | gdB cAF | DBA GBc |
d2g gfg | Bcd bag | d^cd f2g | bag bag | bag agf | gdB cAF | DFA cAF | AGF G2 |]